assets/1. 1-F/Closed mailbox with raised flag/Color/Closed.Mailbox.With.Raised.Flag-color.svg

<svg width="100%" height="100%" viewBox="0 0 32 32" fill="none" xmlns="http://www.w3.org/2000/svg">
<path d="M13.1862 24.9305H17.8369V29.8869H13.1862V24.9305Z" fill="url(#paint0_linear_18_21971)"/>
<path d="M13.1862 24.9305H17.8369V29.8869H13.1862V24.9305Z" fill="url(#paint1_linear_18_21971)"/>
<path d="M13.1862 24.9305H17.8369V29.8869H13.1862V24.9305Z" fill="url(#paint2_radial_18_21971)"/>
<g filter="url(#filter0_i_18_21971)">
<path d="M4.04352 14.5476C4.04352 11.51 6.50595 9.04761 9.54352 9.04761H22.4565C25.4941 9.04761 27.9565 11.51 27.9565 14.5476V23.9306C27.9565 24.4829 27.5088 24.9306 26.9565 24.9306H5.04352C4.49123 24.9306 4.04352 24.4829 4.04352 23.9306V14.5476Z" fill="url(#paint3_linear_18_21971)"/>
<path d="M4.04352 14.5476C4.04352 11.51 6.50595 9.04761 9.54352 9.04761H22.4565C25.4941 9.04761 27.9565 11.51 27.9565 14.5476V23.9306C27.9565 24.4829 27.5088 24.9306 26.9565 24.9306H5.04352C4.49123 24.9306 4.04352 24.4829 4.04352 23.9306V14.5476Z" fill="url(#paint4_radial_18_21971)"/>
<path d="M4.04352 14.5476C4.04352 11.51 6.50595 9.04761 9.54352 9.04761H22.4565C25.4941 9.04761 27.9565 11.51 27.9565 14.5476V23.9306C27.9565 24.4829 27.5088 24.9306 26.9565 24.9306H5.04352C4.49123 24.9306 4.04352 24.4829 4.04352 23.9306V14.5476Z" fill="url(#paint5_radial_18_21971)"/>
<path d="M4.04352 14.5476C4.04352 11.51 6.50595 9.04761 9.54352 9.04761H22.4565C25.4941 9.04761 27.9565 11.51 27.9565 14.5476V23.9306C27.9565 24.4829 27.5088 24.9306 26.9565 24.9306H5.04352C4.49123 24.9306 4.04352 24.4829 4.04352 23.9306V14.5476Z" fill="url(#paint6_radial_18_21971)"/>
</g>
<g filter="url(#filter1_f_18_21971)">
<path d="M5.30309 24.4375H12.9528C13.4603 24.4375 13.8716 24.0186 13.8716 23.5019V14.7233C13.8716 11.9874 11.853 9.58707 9.12793 9.58709C6.55631 9.42392 4.38422 11.5019 4.38422 14.7233V23.5019C4.38422 24.0186 4.79559 24.4375 5.30309 24.4375Z" fill="url(#paint7_linear_18_21971)"/>
<path d="M5.30309 24.5625H12.9528C13.5314 24.5625 13.9966 24.0855 13.9966 23.5019V14.7233C13.9966 11.9327 11.9363 9.46439 9.13189 9.46209C6.47751 9.29595 4.25922 11.4445 4.25922 14.7233V23.5019C4.25922 24.0855 4.72444 24.5625 5.30309 24.5625Z" stroke="url(#paint8_radial_18_21971)" stroke-width="0.25"/>
</g>
<g filter="url(#filter2_ii_18_21971)">
<path d="M19.2905 3.14062H24.6702C25.112 3.14062 25.4702 3.4988 25.4702 3.94063V7.05938C25.4702 7.5012 25.112 7.85938 24.6702 7.85938H19.2905V3.14062Z" fill="#F64092"/>
</g>
<g filter="url(#filter3_i_18_21971)">
<rect x="6.62866" y="20.0144" width="5.70466" height="1.93105" rx="0.965524" fill="url(#paint9_linear_18_21971)"/>
</g>
<g filter="url(#filter4_f_18_21971)">
<rect x="7.11383" y="21.0737" width="4.48438" height="0.363831" rx="0.181915" fill="url(#paint10_linear_18_21971)"/>
</g>
<g filter="url(#filter5_f_18_21971)">
<path d="M19.4623 3.41797H24.7748C24.8712 3.42318 25.0858 3.50391 25.1733 3.78516" stroke="#F667A3" stroke-width="0.15" stroke-linecap="round"/>
</g>
<g filter="url(#filter6_i_18_21971)">
<path d="M17.6337 3.28931C17.6337 2.65491 18.148 2.14062 18.7824 2.14062C19.4168 2.14062 19.9311 2.65491 19.9311 3.28931V12.9062H17.6337V3.28931Z" fill="url(#paint11_linear_18_21971)"/>
<path d="M17.6337 3.28931C17.6337 2.65491 18.148 2.14062 18.7824 2.14062C19.4168 2.14062 19.9311 2.65491 19.9311 3.28931V12.9062H17.6337V3.28931Z" fill="url(#paint12_linear_18_21971)"/>
<path d="M17.6337 3.28931C17.6337 2.65491 18.148 2.14062 18.7824 2.14062C19.4168 2.14062 19.9311 2.65491 19.9311 3.28931V12.9062H17.6337V3.28931Z" fill="url(#paint13_radial_18_21971)"/>
</g>
<g filter="url(#filter7_f_18_21971)">
<rect x="18.924" y="2.89062" width="0.616455" height="9.85156" rx="0.308228" fill="#C0B9CA"/>
</g>
<path d="M17.6342 11.9375C17.0029 12.336 16.7514 13.1233 16.7514 14.0293C16.7514 15.3377 17.4191 16.3984 18.7275 16.3984C20.0359 16.3984 21.0966 15.3377 21.0966 14.0293C21.0966 13.1233 20.6823 12.336 19.935 11.9375H17.6342Z" fill="url(#paint14_radial_18_21971)"/>
<path d="M17.6342 11.9375C17.0029 12.336 16.7514 13.1233 16.7514 14.0293C16.7514 15.3377 17.4191 16.3984 18.7275 16.3984C20.0359 16.3984 21.0966 15.3377 21.0966 14.0293C21.0966 13.1233 20.6823 12.336 19.935 11.9375H17.6342Z" fill="url(#paint15_radial_18_21971)"/>
<path d="M17.6342 11.9375C17.0029 12.336 16.7514 13.1233 16.7514 14.0293C16.7514 15.3377 17.4191 16.3984 18.7275 16.3984C20.0359 16.3984 21.0966 15.3377 21.0966 14.0293C21.0966 13.1233 20.6823 12.336 19.935 11.9375H17.6342Z" fill="url(#paint16_radial_18_21971)"/>
<defs>
<filter id="filter0_i_18_21971" x="4.04352" y="8.64761" width="24.313" height="16.2831" filterUnits="userSpaceOnUse" color-interpolation-filters="sRGB">
<feFlood flood-opacity="0" result="BackgroundImageFix"/>
<feBlend mode="normal" in="SourceGraphic" in2="BackgroundImageFix" result="shape"/>
<feColorMatrix in="SourceAlpha" type="matrix" values="0 0 0 0 0 0 0 0 0 0 0 0 0 0 0 0 0 0 127 0" result="hardAlpha"/>
<feOffset dx="0.4" dy="-0.4"/>
<feGaussianBlur stdDeviation="0.375"/>
<feComposite in2="hardAlpha" operator="arithmetic" k2="-1" k3="1"/>
<feColorMatrix type="matrix" values="0 0 0 0 0.262745 0 0 0 0 0.356863 0 0 0 0 1 0 0 0 1 0"/>
<feBlend mode="normal" in2="shape" result="effect1_innerShadow_18_21971"/>
</filter>
<filter id="filter1_f_18_21971" x="3.63422" y="8.828" width="10.9874" height="16.3595" filterUnits="userSpaceOnUse" color-interpolation-filters="sRGB">
<feFlood flood-opacity="0" result="BackgroundImageFix"/>
<feBlend mode="normal" in="SourceGraphic" in2="BackgroundImageFix" result="shape"/>
<feGaussianBlur stdDeviation="0.25" result="effect1_foregroundBlur_18_21971"/>
</filter>
<filter id="filter2_ii_18_21971" x="19.2905" y="2.89062" width="6.67969" height="5.11875" filterUnits="userSpaceOnUse" color-interpolation-filters="sRGB">
<feFlood flood-opacity="0" result="BackgroundImageFix"/>
<feBlend mode="normal" in="SourceGraphic" in2="BackgroundImageFix" result="shape"/>
<feColorMatrix in="SourceAlpha" type="matrix" values="0 0 0 0 0 0 0 0 0 0 0 0 0 0 0 0 0 0 127 0" result="hardAlpha"/>
<feOffset dx="0.5" dy="-0.25"/>
<feGaussianBlur stdDeviation="0.25"/>
<feComposite in2="hardAlpha" operator="arithmetic" k2="-1" k3="1"/>
<feColorMatrix type="matrix" values="0 0 0 0 0.847059 0 0 0 0 0.14902 0 0 0 0 0.501961 0 0 0 1 0"/>
<feBlend mode="normal" in2="shape" result="effect1_innerShadow_18_21971"/>
<feColorMatrix in="SourceAlpha" type="matrix" values="0 0 0 0 0 0 0 0 0 0 0 0 0 0 0 0 0 0 127 0" result="hardAlpha"/>
<feOffset dx="0.5" dy="0.15"/>
<feGaussianBlur stdDeviation="0.25"/>
<feComposite in2="hardAlpha" operator="arithmetic" k2="-1" k3="1"/>
<feColorMatrix type="matrix" values="0 0 0 0 0.847059 0 0 0 0 0.14902 0 0 0 0 0.501961 0 0 0 1 0"/>
<feBlend mode="normal" in2="effect1_innerShadow_18_21971" result="effect2_innerShadow_18_21971"/>
</filter>
<filter id="filter3_i_18_21971" x="6.12866" y="20.0144" width="6.20465" height="2.43103" filterUnits="userSpaceOnUse" color-interpolation-filters="sRGB">
<feFlood flood-opacity="0" result="BackgroundImageFix"/>
<feBlend mode="normal" in="SourceGraphic" in2="BackgroundImageFix" result="shape"/>
<feColorMatrix in="SourceAlpha" type="matrix" values="0 0 0 0 0 0 0 0 0 0 0 0 0 0 0 0 0 0 127 0" result="hardAlpha"/>
<feOffset dx="-0.5" dy="0.5"/>
<feGaussianBlur stdDeviation="0.375"/>
<feComposite in2="hardAlpha" operator="arithmetic" k2="-1" k3="1"/>
<feColorMatrix type="matrix" values="0 0 0 0 0.117647 0 0 0 0 0.321569 0 0 0 0 0.823529 0 0 0 1 0"/>
<feBlend mode="normal" in2="shape" result="effect1_innerShadow_18_21971"/>
</filter>
<filter id="filter4_f_18_21971" x="6.61383" y="20.5737" width="5.48438" height="1.36377" filterUnits="userSpaceOnUse" color-interpolation-filters="sRGB">
<feFlood flood-opacity="0" result="BackgroundImageFix"/>
<feBlend mode="normal" in="SourceGraphic" in2="BackgroundImageFix" result="shape"/>
<feGaussianBlur stdDeviation="0.25" result="effect1_foregroundBlur_18_21971"/>
</filter>
<filter id="filter5_f_18_21971" x="19.2373" y="3.19302" width="6.16096" height="0.817212" filterUnits="userSpaceOnUse" color-interpolation-filters="sRGB">
<feFlood flood-opacity="0" result="BackgroundImageFix"/>
<feBlend mode="normal" in="SourceGraphic" in2="BackgroundImageFix" result="shape"/>
<feGaussianBlur stdDeviation="0.075" result="effect1_foregroundBlur_18_21971"/>
</filter>
<filter id="filter6_i_18_21971" x="17.6337" y="1.84062" width="2.59736" height="11.0656" filterUnits="userSpaceOnUse" color-interpolation-filters="sRGB">
<feFlood flood-opacity="0" result="BackgroundImageFix"/>
<feBlend mode="normal" in="SourceGraphic" in2="BackgroundImageFix" result="shape"/>
<feColorMatrix in="SourceAlpha" type="matrix" values="0 0 0 0 0 0 0 0 0 0 0 0 0 0 0 0 0 0 127 0" result="hardAlpha"/>
<feOffset dx="0.3" dy="-0.3"/>
<feGaussianBlur stdDeviation="0.425"/>
<feComposite in2="hardAlpha" operator="arithmetic" k2="-1" k3="1"/>
<feColorMatrix type="matrix" values="0 0 0 0 0.439216 0 0 0 0 0.427451 0 0 0 0 0.466667 0 0 0 1 0"/>
<feBlend mode="normal" in2="shape" result="effect1_innerShadow_18_21971"/>
</filter>
<filter id="filter7_f_18_21971" x="18.424" y="2.39062" width="1.61646" height="10.8516" filterUnits="userSpaceOnUse" color-interpolation-filters="sRGB">
<feFlood flood-opacity="0" result="BackgroundImageFix"/>
<feBlend mode="normal" in="SourceGraphic" in2="BackgroundImageFix" result="shape"/>
<feGaussianBlur stdDeviation="0.25" result="effect1_foregroundBlur_18_21971"/>
</filter>
<linearGradient id="paint0_linear_18_21971" x1="16.8217" y1="29.8869" x2="13.1862" y2="29.8869" gradientUnits="userSpaceOnUse">
<stop stop-color="#8F616C"/>
<stop offset="0.419865" stop-color="#7D4261"/>
<stop offset="0.77392" stop-color="#5E3A43"/>
</linearGradient>
<linearGradient id="paint1_linear_18_21971" x1="18.103" y1="29.8869" x2="17.353" y2="29.8869" gradientUnits="userSpaceOnUse">
<stop stop-color="#855A5D"/>
<stop offset="1" stop-color="#855A5D" stop-opacity="0"/>
</linearGradient>
<radialGradient id="paint2_radial_18_21971" cx="0" cy="0" r="1" gradientUnits="userSpaceOnUse" gradientTransform="translate(15.5115 29.8869) rotate(-90) scale(4.95639 5.62268)">
<stop offset="0.771623" stop-color="#632F53" stop-opacity="0"/>
<stop offset="1" stop-color="#5A3A46"/>
</radialGradient>
<linearGradient id="paint3_linear_18_21971" x1="20.5248" y1="24.9306" x2="20.5248" y2="11.2501" gradientUnits="userSpaceOnUse">
<stop offset="0.742721" stop-color="#4396FF"/>
<stop offset="1" stop-color="#59A1FF"/>
</linearGradient>
<radialGradient id="paint4_radial_18_21971" cx="0" cy="0" r="1" gradientUnits="userSpaceOnUse" gradientTransform="translate(16 8.31256) rotate(90) scale(4.0625 18.8502)">
<stop offset="0.0615385" stop-color="#4D70A0"/>
<stop offset="1" stop-color="#3D93EB" stop-opacity="0"/>
</radialGradient>
<radialGradient id="paint5_radial_18_21971" cx="0" cy="0" r="1" gradientUnits="userSpaceOnUse" gradientTransform="translate(18.4936 14.3126) rotate(90) scale(3.3125 2.64062)">
<stop offset="0.612785" stop-color="#2356E3"/>
<stop offset="1" stop-color="#4398FF" stop-opacity="0"/>
</radialGradient>
<radialGradient id="paint6_radial_18_21971" cx="0" cy="0" r="1" gradientUnits="userSpaceOnUse" gradientTransform="translate(17.7123 11.3438) rotate(-127.25) scale(3.76883 1.66127)">
<stop offset="0.111693" stop-color="#114CA0"/>
<stop offset="1" stop-color="#2476C7" stop-opacity="0"/>
</radialGradient>
<linearGradient id="paint7_linear_18_21971" x1="9.12793" y1="9.58707" x2="9.12793" y2="24.4375" gradientUnits="userSpaceOnUse">
<stop stop-color="#3A7DF2"/>
<stop offset="1" stop-color="#3D7DFF"/>
</linearGradient>
<radialGradient id="paint8_radial_18_21971" cx="0" cy="0" r="1" gradientUnits="userSpaceOnUse" gradientTransform="translate(15.4467 12.0073) rotate(125.738) scale(9.4165 3.1675)">
<stop offset="0.262572" stop-color="#5C9DFF"/>
<stop offset="1" stop-color="#5C9DFF" stop-opacity="0"/>
</radialGradient>
<linearGradient id="paint9_linear_18_21971" x1="9.48099" y1="20.0144" x2="9.48099" y2="21.9455" gradientUnits="userSpaceOnUse">
<stop stop-color="#3B6BF1"/>
<stop offset="1" stop-color="#1872E0"/>
</linearGradient>
<linearGradient id="paint10_linear_18_21971" x1="7.11383" y1="21.2556" x2="10.9155" y2="21.2556" gradientUnits="userSpaceOnUse">
<stop stop-color="#568FF7"/>
<stop offset="1" stop-color="#568FF7" stop-opacity="0"/>
</linearGradient>
<linearGradient id="paint11_linear_18_21971" x1="18.103" y1="8.625" x2="19.9311" y2="8.625" gradientUnits="userSpaceOnUse">
<stop stop-color="#9A85B2"/>
<stop offset="1" stop-color="#B9AFC7"/>
</linearGradient>
<linearGradient id="paint12_linear_18_21971" x1="18.7824" y1="2.14062" x2="18.7824" y2="3.84375" gradientUnits="userSpaceOnUse">
<stop stop-color="#8C8893"/>
<stop offset="1" stop-color="#8C8893" stop-opacity="0"/>
</linearGradient>
<radialGradient id="paint13_radial_18_21971" cx="0" cy="0" r="1" gradientUnits="userSpaceOnUse" gradientTransform="translate(19.4467 11.9375) rotate(-90) scale(0.21875 1.64063)">
<stop offset="0.0714286" stop-color="#C3BFCA"/>
<stop offset="1" stop-color="#C3BFCA" stop-opacity="0"/>
</radialGradient>
<radialGradient id="paint14_radial_18_21971" cx="0" cy="0" r="1" gradientUnits="userSpaceOnUse" gradientTransform="translate(18.4467 16.1875) rotate(-90) scale(3.34375 3.06638)">
<stop stop-color="#9F71CD"/>
<stop offset="1" stop-color="#9994A1"/>
</radialGradient>
<radialGradient id="paint15_radial_18_21971" cx="0" cy="0" r="1" gradientUnits="userSpaceOnUse" gradientTransform="translate(20.478 13.75) rotate(169.651) scale(3.65318 4.36719)">
<stop offset="0.548315" stop-color="#73679F" stop-opacity="0"/>
<stop offset="1" stop-color="#60569A"/>
</radialGradient>
<radialGradient id="paint16_radial_18_21971" cx="0" cy="0" r="1" gradientUnits="userSpaceOnUse" gradientTransform="translate(20.0873 13.0156) rotate(-31.1951) scale(1.99101 1.4825)">
<stop offset="0.0788116" stop-color="#CBC4D6"/>
<stop offset="1" stop-color="#AFABB5" stop-opacity="0"/>
</radialGradient>
</defs>
</svg>

<svg width="100%" height="100%" viewBox="0 0 32 32" xmlns="http://www.w3.org/2000/svg"><path fill="url(#a)" d="M13.186 24.93h4.65v4.957h-4.65z"/><path fill="url(#b)" d="M13.186 24.93h4.65v4.957h-4.65z"/><path fill="url(#c)" d="M13.186 24.93h4.65v4.957h-4.65z"/><g filter="url(#d)"><path fill="url(#e)" d="M4.044 14.548a5.5 5.5 0 0 1 5.5-5.5h12.912a5.5 5.5 0 0 1 5.5 5.5v9.383a1 1 0 0 1-1 1H5.044a1 1 0 0 1-1-1z"/><path fill="url(#f)" d="M4.044 14.548a5.5 5.5 0 0 1 5.5-5.5h12.912a5.5 5.5 0 0 1 5.5 5.5v9.383a1 1 0 0 1-1 1H5.044a1 1 0 0 1-1-1z"/><path fill="url(#g)" d="M4.044 14.548a5.5 5.5 0 0 1 5.5-5.5h12.912a5.5 5.5 0 0 1 5.5 5.5v9.383a1 1 0 0 1-1 1H5.044a1 1 0 0 1-1-1z"/><path fill="url(#h)" d="M4.044 14.548a5.5 5.5 0 0 1 5.5-5.5h12.912a5.5 5.5 0 0 1 5.5 5.5v9.383a1 1 0 0 1-1 1H5.044a1 1 0 0 1-1-1z"/></g><g filter="url(#i)"><path fill="url(#j)" d="M5.303 24.438h7.65a.927.927 0 0 0 .919-.936v-8.779c0-2.736-2.019-5.136-4.744-5.136-2.572-.163-4.744 1.915-4.744 5.136v8.779c0 .517.412.936.92.936"/><path stroke="url(#k)" stroke-width=".25" d="M5.303 24.563h7.65c.578 0 1.044-.477 1.044-1.061v-8.779c0-2.79-2.06-5.259-4.865-5.26-2.654-.167-4.873 1.982-4.873 5.26v8.779c0 .584.465 1.06 1.044 1.06Z"/></g><g filter="url(#l)"><path fill="#F64092" d="M19.29 3.14h5.38a.8.8 0 0 1 .8.8v3.12a.8.8 0 0 1-.8.8h-5.38z"/></g><g filter="url(#m)"><rect width="5.705" height="1.931" x="6.629" y="20.014" fill="url(#n)" rx=".966"/></g><g filter="url(#o)"><rect width="4.484" height=".364" x="7.114" y="21.074" fill="url(#p)" rx=".182"/></g><g filter="url(#q)"><path stroke="#F667A3" stroke-linecap="round" stroke-width=".15" d="M19.462 3.418h5.313c.096.005.31.086.398.367"/></g><g filter="url(#r)"><path fill="url(#s)" d="M17.634 3.29a1.149 1.149 0 0 1 2.297 0v9.616h-2.297z"/><path fill="url(#t)" d="M17.634 3.29a1.149 1.149 0 0 1 2.297 0v9.616h-2.297z"/><path fill="url(#u)" d="M17.634 3.29a1.149 1.149 0 0 1 2.297 0v9.616h-2.297z"/></g><g filter="url(#v)"><rect width=".616" height="9.852" x="18.924" y="2.891" fill="#C0B9CA" rx=".308"/></g><path fill="url(#w)" d="M17.634 11.938c-.631.398-.883 1.185-.883 2.091 0 1.309.668 2.37 1.976 2.37a2.37 2.37 0 0 0 2.37-2.37c0-.906-.415-1.693-1.162-2.091z"/><path fill="url(#x)" d="M17.634 11.938c-.631.398-.883 1.185-.883 2.091 0 1.309.668 2.37 1.976 2.37a2.37 2.37 0 0 0 2.37-2.37c0-.906-.415-1.693-1.162-2.091z"/><path fill="url(#y)" d="M17.634 11.938c-.631.398-.883 1.185-.883 2.091 0 1.309.668 2.37 1.976 2.37a2.37 2.37 0 0 0 2.37-2.37c0-.906-.415-1.693-1.162-2.091z"/><defs><radialGradient id="c" cx="0" cy="0" r="1" gradientTransform="matrix(0 -4.95639 5.62268 0 15.511 29.887)" gradientUnits="userSpaceOnUse"><stop offset=".772" stop-color="#632F53" stop-opacity="0"/><stop offset="1" stop-color="#5A3A46"/></radialGradient><radialGradient id="f" cx="0" cy="0" r="1" gradientTransform="matrix(0 4.0625 -18.8502 0 16 8.313)" gradientUnits="userSpaceOnUse"><stop offset=".062" stop-color="#4D70A0"/><stop offset="1" stop-color="#3D93EB" stop-opacity="0"/></radialGradient><radialGradient id="g" cx="0" cy="0" r="1" gradientTransform="matrix(0 3.3125 -2.64062 0 18.494 14.313)" gradientUnits="userSpaceOnUse"><stop offset=".613" stop-color="#2356E3"/><stop offset="1" stop-color="#4398FF" stop-opacity="0"/></radialGradient><radialGradient id="h" cx="0" cy="0" r="1" gradientTransform="rotate(-127.25 11.669 1.28)scale(3.76883 1.66127)" gradientUnits="userSpaceOnUse"><stop offset=".112" stop-color="#114CA0"/><stop offset="1" stop-color="#2476C7" stop-opacity="0"/></radialGradient><radialGradient id="k" cx="0" cy="0" r="1" gradientTransform="rotate(125.738 4.647 9.961)scale(9.4165 3.1675)" gradientUnits="userSpaceOnUse"><stop offset=".263" stop-color="#5C9DFF"/><stop offset="1" stop-color="#5C9DFF" stop-opacity="0"/></radialGradient><radialGradient id="u" cx="0" cy="0" r="1" gradientTransform="matrix(0 -.21875 1.64063 0 19.447 11.938)" gradientUnits="userSpaceOnUse"><stop offset=".071" stop-color="#C3BFCA"/><stop offset="1" stop-color="#C3BFCA" stop-opacity="0"/></radialGradient><radialGradient id="w" cx="0" cy="0" r="1" gradientTransform="matrix(0 -3.34375 3.06638 0 18.447 16.188)" gradientUnits="userSpaceOnUse"><stop stop-color="#9F71CD"/><stop offset="1" stop-color="#9994A1"/></radialGradient><radialGradient id="x" cx="0" cy="0" r="1" gradientTransform="matrix(-3.59375 .65627 -.78454 -4.29614 20.478 13.75)" gradientUnits="userSpaceOnUse"><stop offset=".548" stop-color="#73679F" stop-opacity="0"/><stop offset="1" stop-color="#60569A"/></radialGradient><radialGradient id="y" cx="0" cy="0" r="1" gradientTransform="rotate(-31.195 33.356 -29.47)scale(1.99101 1.4825)" gradientUnits="userSpaceOnUse"><stop offset=".079" stop-color="#CBC4D6"/><stop offset="1" stop-color="#AFABB5" stop-opacity="0"/></radialGradient><linearGradient id="a" x1="16.822" x2="13.186" y1="29.887" y2="29.887" gradientUnits="userSpaceOnUse"><stop stop-color="#8F616C"/><stop offset=".42" stop-color="#7D4261"/><stop offset=".774" stop-color="#5E3A43"/></linearGradient><linearGradient id="b" x1="18.103" x2="17.353" y1="29.887" y2="29.887" gradientUnits="userSpaceOnUse"><stop stop-color="#855A5D"/><stop offset="1" stop-color="#855A5D" stop-opacity="0"/></linearGradient><linearGradient id="e" x1="20.525" x2="20.525" y1="24.931" y2="11.25" gradientUnits="userSpaceOnUse"><stop offset=".743" stop-color="#4396FF"/><stop offset="1" stop-color="#59A1FF"/></linearGradient><linearGradient id="j" x1="9.128" x2="9.128" y1="9.587" y2="24.438" gradientUnits="userSpaceOnUse"><stop stop-color="#3A7DF2"/><stop offset="1" stop-color="#3D7DFF"/></linearGradient><linearGradient id="n" x1="9.481" x2="9.481" y1="20.014" y2="21.945" gradientUnits="userSpaceOnUse"><stop stop-color="#3B6BF1"/><stop offset="1" stop-color="#1872E0"/></linearGradient><linearGradient id="p" x1="7.114" x2="10.915" y1="21.256" y2="21.256" gradientUnits="userSpaceOnUse"><stop stop-color="#568FF7"/><stop offset="1" stop-color="#568FF7" stop-opacity="0"/></linearGradient><linearGradient id="s" x1="18.103" x2="19.931" y1="8.625" y2="8.625" gradientUnits="userSpaceOnUse"><stop stop-color="#9A85B2"/><stop offset="1" stop-color="#B9AFC7"/></linearGradient><linearGradient id="t" x1="18.782" x2="18.782" y1="2.141" y2="3.844" gradientUnits="userSpaceOnUse"><stop stop-color="#8C8893"/><stop offset="1" stop-color="#8C8893" stop-opacity="0"/></linearGradient><filter id="d" width="24.313" height="16.283" x="4.044" y="8.648" color-interpolation-filters="sRGB" filterUnits="userSpaceOnUse"><feFlood flood-opacity="0" result="BackgroundImageFix"/><feBlend in="SourceGraphic" in2="BackgroundImageFix" result="shape"/><feColorMatrix in="SourceAlpha" result="hardAlpha" values="0 0 0 0 0 0 0 0 0 0 0 0 0 0 0 0 0 0 127 0"/><feOffset dx=".4" dy="-.4"/><feGaussianBlur stdDeviation=".375"/><feComposite in2="hardAlpha" k2="-1" k3="1" operator="arithmetic"/><feColorMatrix values="0 0 0 0 0.262745 0 0 0 0 0.356863 0 0 0 0 1 0 0 0 1 0"/><feBlend in2="shape" result="effect1_innerShadow_18_21971"/></filter><filter id="i" width="10.987" height="16.36" x="3.634" y="8.828" color-interpolation-filters="sRGB" filterUnits="userSpaceOnUse"><feFlood flood-opacity="0" result="BackgroundImageFix"/><feBlend in="SourceGraphic" in2="BackgroundImageFix" result="shape"/><feGaussianBlur result="effect1_foregroundBlur_18_21971" stdDeviation=".25"/></filter><filter id="l" width="6.68" height="5.119" x="19.291" y="2.891" color-interpolation-filters="sRGB" filterUnits="userSpaceOnUse"><feFlood flood-opacity="0" result="BackgroundImageFix"/><feBlend in="SourceGraphic" in2="BackgroundImageFix" result="shape"/><feColorMatrix in="SourceAlpha" result="hardAlpha" values="0 0 0 0 0 0 0 0 0 0 0 0 0 0 0 0 0 0 127 0"/><feOffset dx=".5" dy="-.25"/><feGaussianBlur stdDeviation=".25"/><feComposite in2="hardAlpha" k2="-1" k3="1" operator="arithmetic"/><feColorMatrix values="0 0 0 0 0.847059 0 0 0 0 0.14902 0 0 0 0 0.501961 0 0 0 1 0"/><feBlend in2="shape" result="effect1_innerShadow_18_21971"/><feColorMatrix in="SourceAlpha" result="hardAlpha" values="0 0 0 0 0 0 0 0 0 0 0 0 0 0 0 0 0 0 127 0"/><feOffset dx=".5" dy=".15"/><feGaussianBlur stdDeviation=".25"/><feComposite in2="hardAlpha" k2="-1" k3="1" operator="arithmetic"/><feColorMatrix values="0 0 0 0 0.847059 0 0 0 0 0.14902 0 0 0 0 0.501961 0 0 0 1 0"/><feBlend in2="effect1_innerShadow_18_21971" result="effect2_innerShadow_18_21971"/></filter><filter id="m" width="6.205" height="2.431" x="6.129" y="20.014" color-interpolation-filters="sRGB" filterUnits="userSpaceOnUse"><feFlood flood-opacity="0" result="BackgroundImageFix"/><feBlend in="SourceGraphic" in2="BackgroundImageFix" result="shape"/><feColorMatrix in="SourceAlpha" result="hardAlpha" values="0 0 0 0 0 0 0 0 0 0 0 0 0 0 0 0 0 0 127 0"/><feOffset dx="-.5" dy=".5"/><feGaussianBlur stdDeviation=".375"/><feComposite in2="hardAlpha" k2="-1" k3="1" operator="arithmetic"/><feColorMatrix values="0 0 0 0 0.117647 0 0 0 0 0.321569 0 0 0 0 0.823529 0 0 0 1 0"/><feBlend in2="shape" result="effect1_innerShadow_18_21971"/></filter><filter id="o" width="5.484" height="1.364" x="6.614" y="20.574" color-interpolation-filters="sRGB" filterUnits="userSpaceOnUse"><feFlood flood-opacity="0" result="BackgroundImageFix"/><feBlend in="SourceGraphic" in2="BackgroundImageFix" result="shape"/><feGaussianBlur result="effect1_foregroundBlur_18_21971" stdDeviation=".25"/></filter><filter id="q" width="6.161" height=".817" x="19.237" y="3.193" color-interpolation-filters="sRGB" filterUnits="userSpaceOnUse"><feFlood flood-opacity="0" result="BackgroundImageFix"/><feBlend in="SourceGraphic" in2="BackgroundImageFix" result="shape"/><feGaussianBlur result="effect1_foregroundBlur_18_21971" stdDeviation=".075"/></filter><filter id="r" width="2.597" height="11.066" x="17.634" y="1.841" color-interpolation-filters="sRGB" filterUnits="userSpaceOnUse"><feFlood flood-opacity="0" result="BackgroundImageFix"/><feBlend in="SourceGraphic" in2="BackgroundImageFix" result="shape"/><feColorMatrix in="SourceAlpha" result="hardAlpha" values="0 0 0 0 0 0 0 0 0 0 0 0 0 0 0 0 0 0 127 0"/><feOffset dx=".3" dy="-.3"/><feGaussianBlur stdDeviation=".425"/><feComposite in2="hardAlpha" k2="-1" k3="1" operator="arithmetic"/><feColorMatrix values="0 0 0 0 0.439216 0 0 0 0 0.427451 0 0 0 0 0.466667 0 0 0 1 0"/><feBlend in2="shape" result="effect1_innerShadow_18_21971"/></filter><filter id="v" width="1.616" height="10.852" x="18.424" y="2.391" color-interpolation-filters="sRGB" filterUnits="userSpaceOnUse"><feFlood flood-opacity="0" result="BackgroundImageFix"/><feBlend in="SourceGraphic" in2="BackgroundImageFix" result="shape"/><feGaussianBlur result="effect1_foregroundBlur_18_21971" stdDeviation=".25"/></filter></defs></svg>
